X:77
T:Royal Dozen THO4.077, The
M:2/4
L:1/8
Z:vmp. Peter Dunk 2010/11.from a transcription by Fynn Titford-Mock 2007
B:Thompson's Compleat Collection of 200 Favourite Country Dances Volume IV.
Q:1/4=120
K:D
ff/g/ fd|ee/f/ eA|BB/d/ cc/e/|dd/c/ de|\
f/e/f/g/ fd| e/d/e/f/ eA|BB/d/ cc/e/:|
|:a a2 f|gG/B/ AA|g g2 e|fd/e/ !wedge!d(f/g/)|\
!wedge!a(a/b/) !wedge!a(f/g/)|!wedge!a(a/b/) \
!wedge!a(f/d/)|g g2 f|f2e2|
ff/g/ fd|ee/f/ eA|BB/d/ cc/e/|dd/c/ de|\
f/e/f/g/ fd|e/d/e/f/ eA|BB/d/ cc/e/:|
